X:117
T:Chelsea Reach. (p)1657.PLFD.117
M:6/4
L:1/4
Q:3/4=80
S:Playford, Dancing Master,3rd Ed.,1657
O:England
H:1657.
Z:Chris Partington.
K:F
c|A>GF G2 E|F2 F F2 f|def def|g2 e c2 c|
ABc ABc|Bcd d>cB|A>GF G2 e|f2 FF2:|
|:f|f>gf d>ed|d>ed c>BA|A>Bc c>d=B|c2 c c2 c|
AGA BAB|GAB cBc|def fge|f2 FF2:|
